X:2
T:The Maid on the Green
C:Traditional
N:Play 2 times
N:The Paris Set, Figure 4, Tune 2 of 3
Z:Gordon Turnbull, Edinburgh
Z:gturnbull@theflow.org.uk
Z:http://www.theflow.org.uk
B:O'Neill's Music of Ireland (slightly different)
R:Jig
L:1/8
M:6/8
K:DMix
d | gfg e2 d | Bdg dBA | BGG dGG | BAA ABd |
gfg e2 d | Bdg dBA | BGG dBA | BGG G3 :||
d | gfg afd | gfg a2 f | gfg eag | fdd d2 g |
bgb afa | gfg e2 d | Bdg dBA | BGG G:||
